X:476
T: "Stolz gen Stolz"
N: Z1156
O: Europa, Mitteleuropa, Deutschland, Nord - Deutschland
R: Liebes - Lied
M: 3/4
L: 1/4
K: G
D | GBd | edc | d3 | Bz
d | dcc | d2d | B2
D | GBd | edc | d3 | Bz
d | dcc | d2d | B2
B | A2A | d2c | B2B | BA
G | A2A | d2c | B2e | d2
D | GBd | edc | d3 | Bz
d | dcc | d2d | B2

@@@ Tune index: 10234
